X: 8575
T: Crodh Chailein
R: waltz
M: 3/4
K: Cmajor
C/D/|EEG E/D/CC/D/|EGc A2G/F/|EGE DEc/A/|GED C2||
G/A/|ccd cAG/A/|cdc/A/ c2C/D/|EDC DEc/A/|GED C2||

